!!!ONB: MCCC : IJB0046_01 : Extracted Monophonic Melody
!!!COM: Brahms, Johannes
!!!OPR: 4 Klavierstücke
!!!OMV: 1
!!!SCT: Op.119
!!!ODT: 1893///
**kern
*staff1
=1
*clefG2
*k[f#c#]
*D:
*M3/8
8ff#
32dd
16.dd[
16dd]
16aa
=2
8gg
32ee
16.ee[
16ee]
16ff#
=3
8cc#
32a
16.a[
16a]
16b
=4
16ee
16b
16dd
16b
16cc#
16a#
=5
16ff#
16ee
16dd
16cc#
16a#
16b
=6
16ee
16a#
16dd
16a
16cc#
16a
=7
16aa
16gg
16ff#
16ee
16cc#
16dd
=8
16gg
16ff#
16ee
16dd
16cc
16cc#
=9
8ff#
32dd
16.dd[
16dd]
16aa
=10
8gg
32ee
16.ee[
16ee]
16ff#
=11
16cc#
16a#
8a#
16f#
16b
=12
16dd
16b
16cc#
16g#
16r
16a
=13
16cc#
16a
16b
16f#
16r
16f#
=14
16b
16f
16a
16f#
16g
16c#
=15
4.r
=16
16r
16d
16c#
16B
16f#[
16f#]
=17
8f#
8.a
16f#
=18
16a#
16f#
8b
8b
=19
8.g
32e
32g#
8g#
=20
32f
32b
16f#
8a
8dd
=21
8ff#
8ff#
8ff#
=22
8ff#
8ee
8ff
=23
8gg#
8gg#
8ff#
=24
16ff#
16gg
8.eee
16ddd
=25
8ddd
8ccc#
8bb
=26
8aa#
8aa
8gg#
=27
4.gg
=28
8ff
8ff
8ff
=29
8ff
8ff
8ff
=30
8ff
8ff
8ff
=31
8ff
4ff
=32
8ff
8ff
8ff
=33
8.ff
8ff
16ff
=34
16ff
8.ff
8ff
=35
4.ff
=36
4.ff
=37
4ff
16ff
16ff
=38
16ff
16ff
16ff
16ff
8ff
=39
4.ff
=40
4.ff
=41
4.ff
=42
4.ff
=43
4.ff
=44
4.ff
=45
4.ff
=46
4ff
8ff
=47
8ff
8ff
16aa#
32gg
32ff
=48
8ff
4ff
=49
4ff
16ff
16ff
=50
16ff
16ff
8ff
16ff
16ff
=51
16ff
16ff
16ff
16ff
8ff
=52
16ff
16ff
16ff
16ff
16ff
16gg
=53
16ff#
16ff
16ff
16ff
16gg
16ff#
=54
16ff
16ff
16ff
32ff
32ff#
8ff#
=55
4ff
8ff
=56
8ff
24ff
24ff
24ff#
24cc
24cc
24cc
=57
8cc[
24cc]
24a#
24b
8b
=58
8a
16r
16f#
8a
=59
8g
16r
16e
8g
=60
8f#
16e
16g
8g
=61
8e[
8e]
16f#
16f#[
=62
16f#]
8.e
16c#
16e[
=63
16e]
8.d
16B
16d
=64
16r
16c#
16r
16b
16a
16g
=65
8e
128e
64.e
16.e
8e[
=66
16e]
8.f#
8f#
=67
4.f#
=68
4.f#[
=69
8f#]
8r
8r
==
*-
